cached_logos/ibm-member.svg

<svg xmlns="http://www.w3.org/2000/svg" role="img" viewBox="-7.97 34.03 414.18 176.68"><style>svg {enable-background:new 0 0 400 245}</style><path fill="#4c83c3" d="M398.3 53.5H332l4.1-11.4h62.2zM221.5 42.1h61.6l4 11.5h-65.6c.1-.1 0-11.5 0-11.5zm-48.8 0c10.1 1 19 4.6 26.5 11.5H87.6V42.1h85.1zM0 42.1h77.5v11.4H0zM398.3 75h-73.9l4-11.4h69.9V75zm-103.5 0h-73.3V63.6h69.2zm-87-11.4c1.5 3.8 3.2 7 3.2 11.4H87.6V63.6h120.2zM0 63.6h77.5V75H0zm316.8 32.9l4.1-11.4h55.5v11.4zm-18.5-11.4l4.1 11.4h-59V85.1zM212 85c0 3.9-.5 8-1.6 11.4h-33.8V85H212zm-190.4.1h33.3v11.4H21.6zM110 85h33.3v11.4H110zm166.1 23.8v8.7h-32.8v-11.4h62.4l3.9 10.6 3.7-10.6h62.9v11.4h-32.6v-8.7l-3 8.7H279l-2.9-8.7zM110 106.1h95.5c-2.1 3.8-5.9 8.4-9.5 11.4h-86v-11.4zm-88.4 0h33.3v11.4H21.6zm322.2 21.5h32.6V139h-32.6zm-67.7 0h-32.8V139h32.8c0-.1.1-11.4 0-11.4zm61.1 0c-.1 0-3.8 11.4-4 11.4h-46.4l-4.1-11.4h54.5zm-227.2 0h85.8c3.9 3.3 7.5 7.3 10.2 11.4h-96.1c.1-.1.1-11.4.1-11.4zm-55.1 11.3v-11.4H21.7v11.4h33.2zM343.8 149h32.6v11.4h-32.6zm-100.4 0h32.8v11.4h-32.8zm82.2 11.4c0-.1 4-11.4 4.1-11.4h-39.5c-.1 0 4 11.4 4 11.4s31.4.1 31.4 0zm-215.6 0V149h33.8v11.4H110zM210.8 149c1.6 3.4 1.8 7.5 2.1 11.4h-35.8V149h33.7zm-189.1 0H55v11.4H21.7zm322.1 21h54.5v11.4h-54.5zm-122.3 0h54.6v11.4h-54.6zm96.7 11.4h-16.6l-4-11.4h24.5zM0 170v11.4h77.5V170H0zm211.5 0c-.8 3.8-1.6 8.3-4.3 11.4H87.6V170h123.9zm99.2 32.9h-1.5l-3.9-11.4h9.4zm33.1-11.4h54.5v11.4h-54.5zM87.6 202.9v-11.4h112.2c-7.5 7.2-17.8 11.2-28.9 11.4H87.6m133.9-11.4h54.6v11.4h-54.6zm-144 0v11.4H0v-11.4s77.4.1 77.5 0z"/></svg>

<svg xmlns="http://www.w3.org/2000/svg" role="img" viewBox="-7.97 34.03 414.18 176.68"><title>IBM (member) logo</title><style>svg {enable-background:new 0 0 400 245}</style><style>.st0{fill:#4c83c3}</style><g><path d="M398.3 53.5L332 53.5 336.1 42.1 398.3 42.1zM221.5 42.1l61.6 0 4 11.5c0 0-65.6 0-65.6 0C221.6 53.5 221.5 42.1 221.5 42.1zM172.7 42.1c10.1 1 19 4.6 26.5 11.5 0 0-111.6 0-111.6 0 0 0 0-11.5 0-11.5L172.7 42.1z" class="st0"/><g><path d="M0 42.1H77.5V53.5H0z" class="st0"/></g><path d="M398.3 75h-73.9c0 0 4-11.4 4-11.4h69.9V75zM294.8 75L221.5 75 221.5 63.6 290.7 63.6zM207.8 63.6c1.5 3.8 3.2 7 3.2 11.4H87.6V63.6H207.8z" class="st0"/><g><path d="M0 63.6H77.5V75H0z" class="st0"/></g><path d="M316.8 96.5L320.9 85.1 376.4 85.1 376.4 96.5zM298.3 85.1L302.4 96.5 243.4 96.5 243.4 85.1zM212 85c0 3.9-.5 8-1.6 11.4h-33.8V85H212z" class="st0"/><g><path d="M21.6 85.1H54.9V96.5H21.6z" class="st0"/></g><g><path d="M110 85H143.3V96.4H110z" class="st0"/></g><path d="M276.1 108.8c0 0 0 8.7 0 8.7h-32.8v-11.4h62.4l3.9 10.6c0 0 3.7-10.6 3.7-10.6h62.9v11.4h-32.6c0 0 0-8.7 0-8.7l-3 8.7-61.6 0L276.1 108.8zM110 106.1h95.5v0c-2.1 3.8-5.9 8.4-9.5 11.4 0 0-86 0-86 0C110 117.5 110 106.1 110 106.1z" class="st0"/><g><path d="M21.6 106.1H54.9V117.5H21.6z" class="st0"/></g><g><path d="M343.8 127.6H376.40000000000003V139H343.8z" class="st0"/></g><path d="M276.1 127.6h-32.8v11.4c0 0 32.8 0 32.8 0C276.1 138.9 276.2 127.6 276.1 127.6zM337.2 127.6c-.1 0-3.8 11.4-4 11.4l-46.4 0c0 0-4.1-11.4-4.1-11.4H337.2zM110 127.6h85.8c3.9 3.3 7.5 7.3 10.2 11.4.2 0-96.1 0-96.1 0C110 138.9 110 127.6 110 127.6zM54.9 138.9v-11.4H21.7c0 0 0 11.4 0 11.4C21.7 138.9 54.9 138.9 54.9 138.9z" class="st0"/><g><path d="M343.8 149H376.40000000000003V160.4H343.8z" class="st0"/></g><g><path d="M243.4 149H276.2V160.4H243.4z" class="st0"/></g><path d="M325.6 160.4c0-.1 4-11.4 4.1-11.4h-39.5c-.1 0 4 11.4 4 11.4S325.6 160.5 325.6 160.4zM110 160.4c0 0 0-11.4 0-11.4h33.8c0 0 0 11.4 0 11.4C143.7 160.4 110 160.4 110 160.4zM210.8 149c1.6 3.4 1.8 7.5 2.1 11.4h-35.8V149H210.8z" class="st0"/><g><path d="M21.7 149H55V160.4H21.7z" class="st0"/></g><g><path d="M343.8 170H398.3V181.4H343.8z" class="st0"/></g><g><path d="M221.5 170H276.1V181.4H221.5z" class="st0"/></g><path d="M318.2 181.4L301.6 181.4 297.6 170 322.1 170zM0 170v11.4h77.5c0 0 0-11.4 0-11.4C77.5 170-.1 170 0 170zM211.5 170c-.8 3.8-1.6 8.3-4.3 11.4l-1 0H87.6V170H211.5zM310.7 202.9L309.2 202.9 305.3 191.5 314.7 191.5z" class="st0"/><g><path d="M343.8 191.5H398.3V202.9H343.8z" class="st0"/></g><path d="M87.6,202.9v-11.4c0,0,111.9,0,112.2,0c-7.5,7.2-17.8,11.2-28.9,11.4L87.6,202.9" class="st0"/><g><path d="M221.5 191.5H276.1V202.9H221.5z" class="st0"/></g><path d="M77.5,191.5c0,0,0,11.4,0,11.4c0,0-77.4,0-77.5,0c0,0,0-11.4,0-11.4S77.4,191.6,77.5,191.5z" class="st0"/></g></svg>
